;FLAVOR:Marlin
;TIME:13465
;Filament used:7.11076m
;Layer height: 0.1
;MINX:87.699
;MINY:110.209
;MINZ:0.24
;MAXX:212.299
;MAXY:189.8
;MAXZ:28.89
                            
;Creality Print GCode Generated by CXEngine:NO_MAGE_VERSION_GIT_HEAD_BRANCH
;CXEngine Release Time:2022-08-30 19:45:28
;Gcode Generated Time:2026-03-06 16:11:54
;----------Machine Config--------------
;Machine Name:CR-10 Smart Pro
;Machine Height:400
;Machine Width:300
;Machine Depth:300
;Material name:cxsw
;Number of Extruders:1
;ExtruderParams[0] Nozzle Diameter1000
;----------Profile Config---------------
;Engine Version:9c786ab
;Engine Release Time:2022-08-30 19:36:37
;Layer Height:0.1
;Wall Thickness:0.8
;Top/Bottom Thickness:0.5
;Out Wall Line Width:0.4
;Inner Wall Line Width:0.4
;Inital Layer Height:100
;Wall Line Count:2
;Infill Line Distance:4
;Infill Pattern:grid
;Infill Sparse Density:20
;Infill Wipe Distance:0
;Print Temperature:200
;Bed Temperature:50
;Support Enable:false
;Support Density:30
;Support Angle:60
;Adhesion Type:simpleraft
;machine is belt:false
;machine belt offset:10
;machine belt offset Y:0
;Raft Base Line Spacing:1.6
;Wait Heatup Sync:true
;----------Shell Config----------------
;Outer Wall Wipe Distance:200
;Outer Inset First:false
;Infill Before Walls:false
;Infill Overlap:0.16
;Fill Gaps Between Walls:everywhere
;Minimum Infill Area:1
;Top Surface Skin Layer:0
;Top Layers:4
;Z Seam Alignment:sharpest_corner
;Seam Corner Preference:z_seam_corner_inner
;Z Seam X:150
;Z Seam Y:150
;Horizontal Expansion:0
;Top/Bottom Pattern:zigzag
;Ironing Pattern:zigzag
;Vase Model:false
;----------Support Config----------------
;Support Type:everywhere
;Support Pattern:zigzag
;Support Infill Layer Thickness:0.1
;Minimum Support Area:5
;Enable Support Roof:false
;Support Roof Thickness:0.8
;Support Roof Pattern:lines
;Connect Support Lines:0
;Connect Support ZigZags:1
;Minimum Support X/Y Distance:0.2
;Support Line Distance:1.33
; ---------PrintSpeed & Travel----------
;Enable Print Cool:true
;Avoid Printed Parts Traveling:true
;Enable Retraction:true
;Retraction Distance:0.8
;Retraction Speed:80
;Retraction Prime Speed:80
;Maximum Retraction Count:100
;Minimum Extrusion Distance Window:1
;Z Hop When Retracted:false
;Z Hop Height:0.2
;Retract Before Outer Wall:true
;Print Speed:50
;Infill Speed:50

;Prime Tower Speed:50
;Travel Speed:120
;Initial Layer Speed:25
;Skirt/Brim Speed:25
;Combing Mode:infill
; --------SpecialModel&Mesh Fixes--------
;Union Overlapping Volum:true
;Remove All Holes:false
;Maximum Travel Resolution:0.6
;Maximum Deviation:0.05
;Maximum Model Angle:0.872665
;IS Mold Print:false
;Make Overhang Printable:false
;Enable Coasting:false
;Coasting Volumes:0.06
;Coasting Speed:0.9
;Raft AirGap:0.25
;Layer0 ZOverLap:0.13
;---------------------End of Head--------------------------
M140 S50
M105
M104 S200
M105
M109 S200
M105
M190 S50
M82 ;absolute extrusion mode
M220 S100 ;Reset Feedrate
M221 S100 ;Reset Flowrate

G28 ;Home

G92 E0 ;Reset Extruder
G1 Z2.0 F3000 ;Move Z Axis up
G1 X10.1 Y20 Z0.28 F5000.0 ;Move to start position
G1 X10.1 Y145.0 Z0.28 F1500.0 E15 ;Draw the first line
G1 X10.4 Y145.0 Z0.28 F5000.0 ;Move to side a little
G1 X10.4 Y20 Z0.28 F1500.0 E30 ;Draw the second line
G92 E0  ;Reset Extruder
G1 E-1.0000 F1800 ;Retract a bit
G1 Z2.0 F3000 ;Move Z Axis up
G1 E0.0000 F1800 

G92 E0
G92 E0
G1 F4800 E-0.8

;LAYER_COUNT:280

;LAYER:-4
M107
G0 F7200 X91.2 Y143.27 Z0.24
;TYPE:SUPPORT-INTERFACE
G1 F4800 E0
G1 F1200 X91.2 Y186.685 E3.81213
G1 X90.797 Y186.294 E3.86143
G1 X90.261 Y185.669 E3.93373
G1 X89.783 Y184.998 E4.00607
G1 X89.6 Y184.687 E4.03776
G1 X89.6 Y145.304 E7.49585
G1 X89.657 Y145.201 E7.50619
G1 X90.119 Y144.518 E7.57859
G1 X90.619 Y143.901 E7.64832
G1 X91.075 Y143.42 E7.70652
G1 X91.529 Y142.877 E7.76867
G1 X91.924 Y142.261 E7.83292
G1 X92.24 Y141.598 E7.89741
G1 X92.469 Y140.902 E7.96175
G1 X92.609 Y140.181 E8.02624
G1 X92.656 Y139.45 E8.09056
G1 X92.611 Y138.717 E8.15504
G1 X92.443 Y137.848 E8.23276
G1 X91.923 Y136.395 E8.36827
G1 X91.364 Y134.527 E8.53948
G1 X91.2 Y133.84 E8.6015
G1 X91.2 Y126.161 E9.27576
G1 X91.426 Y125.265 E9.3569
G1 X91.981 Y123.451 E9.52347
G1 X92.293 Y122.605 E9.60265
G1 X92.683 Y121.782 E9.68262
G1 X92.8 Y121.564 E9.70434
G1 X92.8 Y187.897 E15.52883
G1 X93.446 Y188.252 E15.59355
G1 X94.191 Y188.579 E15.66499
G1 X94.4 Y188.649 E15.68434
G1 X94.4 Y118.86 E21.81229
G1 X94.632 Y118.547 E21.8465
G1 X95.846 Y117.072 E22.01424
G1 X96 Y116.905 E22.03419
G1 X96 Y189.063 E28.37015
G1 X96.584 Y189.15 E28.42199
G1 X97.596 Y189.2 E28.51096
G0 F7200 X97.6 Y189.2
G1 F1200 X97.6 Y115.411 E34.99013
G1 X98.643 Y114.559 E35.10839
G1 X99.2 Y114.154 E35.16886
G1 X99.2 Y189.2 E41.7584
G1 X100.8 Y189.2 E41.8989
G1 X100.8 Y113.212 E48.57116
G1 X101.898 Y112.63 E48.68027
G1 X102.4 Y112.398 E48.72883
G1 X102.4 Y189.2 E55.47257
G1 X104 Y189.2 E55.61306
G1 X104 Y111.817 E62.40781
G1 X105.458 Y111.381 E62.54143
G1 X105.6 Y111.346 E62.55427
G1 X105.6 Y189.2 E69.39038
G1 X107.2 Y189.2 E69.53087
G1 X107.2 Y111.043 E76.39359
G1 X107.248 Y111.036 E76.39784
G1 X108.8 Y110.886 E76.53476
G1 X108.8 Y189.2 E83.41125
G1 X110.4 Y189.2 E83.55175
G1 X110.4 Y110.81 E90.43492
G1 X112 Y110.81 E90.57541
G1 X112 Y189.2 E97.45858
G1 X113.6 Y189.2 E97.59907
G1 X113.6 Y110.81 E104.48224
G1 X115.2 Y110.81 E104.62273
G1 X115.2 Y189.2 E111.5059
G1 X116.8 Y189.2 E111.6464
G1 X116.8 Y110.81 E118.52957
G1 X118.4 Y110.81 E118.67006
G1 X118.4 Y189.2 E125.55323
G1 X120 Y189.2 E125.69372
G1 X120 Y110.81 E132.57689
G1 X121.6 Y110.81 E132.71738
G1 X121.6 Y189.2 E139.60056
G1 X123.2 Y189.2 E139.74105
G1 X123.2 Y110.81 E146.62422
G1 X124.8 Y110.81 E146.76471
G1 X124.8 Y189.2 E153.64788
G1 X126.4 Y189.2 E153.78837
G1 X126.4 Y110.81 E160.67154
G1 X128 Y110.81 E160.81203
G1 X128 Y189.2 E167.69521
G1 X129.6 Y189.2 E167.8357
G1 X129.6 Y110.81 E174.71887
G1 X131.2 Y110.81 E174.85936
G1 X131.2 Y189.2 E181.74253
G1 X132.8 Y189.2 E181.88302
G1 X132.8 Y110.81 E188.76619
G1 X134.4 Y110.81 E188.90668
G1 X134.4 Y189.2 E195.78986
G1 X136 Y189.2 E195.93035
G1 X136 Y110.81 E202.81352
G1 X137.6 Y110.81 E202.95401
G1 X137.6 Y189.2 E209.83718
G1 X139.2 Y189.2 E209.97767
G1 X139.2 Y110.81 E216.86084
G1 X140.8 Y110.81 E217.00133
G1 X140.8 Y189.2 E223.88451
G1 X142.4 Y189.2 E224.025
G1 X142.4 Y110.81 E230.90817
G1 X144 Y110.81 E231.04866
G1 X144 Y189.2 E237.93183
G1 X145.6 Y189.2 E238.07232
G1 X145.6 Y110.81 E244.95549
G1 X147.2 Y110.81 E245.09599
G1 X147.2 Y189.2 E251.97916
G1 X148.8 Y189.2 E252.11965
G1 X148.8 Y110.81 E259.00282
G1 X150.4 Y110.81 E259.14331
G1 X150.4 Y189.2 E266.02648
G1 X152 Y189.2 E266.16697
G1 X152 Y110.81 E273.05014
G1 X153.6 Y110.81 E273.19064
G1 X153.6 Y189.2 E280.07381
G1 X155.2 Y189.2 E280.2143
G1 X155.2 Y110.81 E287.09747
G1 X156.8 Y110.81 E287.23796
G1 X156.8 Y189.2 E294.12113
G1 X158.4 Y189.2 E294.26162
G1 X158.4 Y110.81 E301.1448
G1 X160 Y110.81 E301.28529
G1 X160 Y189.2 E308.16846
G1 X161.6 Y189.2 E308.30895
G1 X161.6 Y110.81 E315.19212
G1 X163.2 Y110.81 E315.33261
G1 X163.2 Y189.2 E322.21578
G1 X164.8 Y189.2 E322.35627
G1 X164.8 Y110.81 E329.23945
G1 X166.4 Y110.81 E329.37994
G1 X166.4 Y189.2 E336.26311
G1 X168 Y189.2 E336.4036
G1 X168 Y110.81 E343.28677
G1 X169.6 Y110.81 E343.42726
G1 X169.6 Y189.2 E350.31043
G1 X171.2 Y189.2 E350.45092
G1 X171.2 Y110.81 E357.3341
G1 X172.8 Y110.81 E357.47459
G1 X172.8 Y189.2 E364.35776
G1 X174.4 Y189.2 E364.49825
G1 X174.4 Y110.81 E371.38142
G1 X176 Y110.81 E371.52191
G1 X176 Y189.2 E378.40508
G1 X177.6 Y189.2 E378.54557
G1 X177.6 Y110.81 E385.42875
G1 X179.2 Y110.81 E385.56924
G1 X179.2 Y189.2 E392.45241
G1 X180.8 Y189.2 E392.5929
G1 X180.8 Y110.81 E399.47607
G1 X182.4 Y110.81 E399.61656
G1 X182.4 Y189.2 E406.49973
G1 X184 Y189.2 E406.64023
G1 X184 Y110.81 E413.5234
G1 X185.6 Y110.81 E413.66389
G1 X185.6 Y189.2 E420.54706
G1 X187.2 Y189.2 E420.68755
G1 X187.2 Y110.81 E427.57072
G1 X188.8 Y110.81 E427.71121
G1 X188.8 Y189.2 E434.59439
G1 X190.4 Y189.2 E434.73488
G1 X190.4 Y110.836 E441.61576
G1 X191.022 Y110.866 E441.67044
G1 X192 Y110.965 E441.75676
G1 X192 Y189.2 E448.62632
G1 X193.6 Y189.2 E448.76681
G1 X193.6 Y111.166 E455.61872
G1 X193.787 Y111.195 E455.63534
G1 X194.716 Y111.427 E455.71942
G1 X195.2 Y111.576 E455.76388
G1 X195.2 Y189.2 E462.5798
G1 X196.8 Y189.2 E462.72029
G1 X196.8 Y112.08 E469.49194
G1 X197.384 Y112.295 E469.54659
G1 X198.244 Y112.701 E469.63009
G1 X198.4 Y112.785 E469.64565
G1 X198.4 Y189.2 E476.3554
G1 X200 Y189.2 E476.4959
G1 X200 Y113.65 E483.1297
G1 X200.715 Y114.087 E483.20328
G1 X201.455 Y114.635 E483.28413
G1 X201.6 Y114.755 E483.30066
G1 X201.6 Y189.2 E489.83743
G1 X202.494 Y189.2 E489.91593
G1 X203.2 Y189.153 E489.97806
G1 X203.2 Y116.098 E496.39278
G1 X203.596 Y116.461 E496.43995
G1 X204.255 Y117.188 E496.52611
G1 X204.8 Y117.856 E496.60181
G1 X204.8 Y188.893 E502.83934
G1 X205.273 Y188.766 E502.88234
G1 X206.26 Y188.389 E502.97511
G1 X206.4 Y188.322 E502.98874
G1 X206.4 Y120.081 E508.98076
G1 X206.484 Y120.221 E508.9951
G1 X207.377 Y121.901 E509.16216
G1 X207.745 Y122.694 E509.23892
G1 X208 Y123.408 E509.30549
G1 X208 Y136.621 E510.46569
G1 X207.543 Y137.93 E510.58743
G1 X207.398 Y138.652 E510.65209
G1 X207.344 Y139.382 E510.71636
G1 X207.384 Y140.116 E510.78091
G1 X207.516 Y140.838 E510.84536
G1 X207.736 Y141.536 E510.90962
G1 X208 Y142.104 E510.96462
G1 X208 Y187.36 E514.9384
G1 X208.165 Y187.242 E514.95621
G1 X208.8 Y186.698 E515.02963
G1 X209.382 Y186.098 E515.10303
G1 X209.887 Y185.475 E515.17345
G1 X210.351 Y184.787 E515.24631
G1 X210.752 Y184.055 E515.3196
G1 X211.083 Y183.301 E515.39191
G1 X211.2 Y182.95 E515.42439
G1 X211.2 Y147.047 E518.57692
G1 X210.985 Y146.461 E518.63173
G1 X210.619 Y145.685 E518.70706
G1 X210.218 Y145.003 E518.77653
G1 X209.6 Y144.159 E518.86838
G1 X209.6 Y185.83 E522.52738
G0 F600 X209.6 Y185.83 Z0.47
G0 F7200 X211.108 Y184.238
;TIME_ELAPSED:304.510519

;LAYER:-3
;TYPE:SUPPORT
G1 F1800 X137.279 Y110.409 E530.51457
G1 X135.865 Y110.409 E530.62274
G1 X210.596 Y185.14 E538.70751
G1 X210.211 Y185.711 E538.76019
G1 X210.005 Y185.964 E538.78515
G1 X134.451 Y110.409 E546.95901
G1 X133.037 Y110.409 E547.06717
G1 X209.341 Y186.714 E555.32217
G1 X209.076 Y186.988 E555.35133
G1 X208.604 Y187.391 E555.39881
G1 X131.622 Y110.409 E563.7271
G1 X130.208 Y110.409 E563.83527
G1 X207.795 Y187.996 E572.22902
G1 X207.721 Y188.05 E572.23603
G1 X207.002 Y188.474 E572.29988
G1 X206.904 Y188.519 E572.30813
G1 X128.794 Y110.409 E580.75846
G1 X127.38 Y110.409 E580.86662
G1 X205.917 Y188.947 E589.3632
G1 X205.396 Y189.148 E589.40592
G1 X204.848 Y189.292 E589.44926
G1 X125.966 Y110.409 E597.98316
G1 X124.551 Y110.409 E598.09141
G1 X203.662 Y189.52 E606.65003
G1 X202.506 Y189.6 E606.73867
G1 X202.327 Y189.599 E606.75236
G1 X123.137 Y110.409 E615.31953
G1 X121.723 Y110.409 E615.4277
G1 X200.913 Y189.599 E623.99487
G1 X199.498 Y189.599 E624.10311
G1 X120.309 Y110.409 E632.67022
G1 X118.895 Y110.409 E632.77839
G1 X198.084 Y189.599 E641.3455
G1 X196.67 Y189.599 E641.45367
G1 X117.48 Y110.409 E650.02084
G1 X116.066 Y110.409 E650.12901
G1 X195.256 Y189.599 E658.69617
G1 X193.842 Y189.599 E658.80434
G1 X114.652 Y110.409 E667.37151
G1 X113.238 Y110.409 E667.47968
G1 X192.427 Y189.599 E676.04679
G1 X191.013 Y189.599 E676.15496
G1 X111.823 Y110.409 E684.72212
G1 X110.409 Y110.409 E684.83029
G1 X189.599 Y189.599 E693.39746
G1 X188.185 Y189.599 E693.50563
G1 X109.046 Y110.46 E702.06728
G1 X107.756 Y110.585 E702.16642
G1 X186.77 Y189.599 E710.71455
G1 X185.356 Y189.599 E710.82272
G1 X106.499 Y110.742 E719.35386
G1 X106.236 Y110.781 E719.3742
G1 X105.359 Y110.993 E719.44322
G1 X105.34 Y110.997 E719.4447
G1 X183.942 Y189.599 E727.94826
G1 X182.528 Y189.599 E728.05642
G1 X104.252 Y111.324 E736.52465
G1 X103.471 Y111.559 E736.58705
G1 X103.178 Y111.663 E736.61083
G1 X181.114 Y189.599 E745.04233
G1 X179.699 Y189.599 E745.15058
G1 X102.166 Y112.065 E753.53853
G1 X101.721 Y112.271 E753.57605
G1 X101.222 Y112.536 E753.61927
G1 X178.285 Y189.599 E761.95633
G1 X176.871 Y189.599 E762.06449
G1 X100.298 Y113.026 E770.34854
G1 X100.014 Y113.177 E770.37315
G1 X99.402 Y113.544 E770.42773
G1 X175.457 Y189.599 E778.65574
G1 X174.043 Y189.599 E778.76391
G1 X98.565 Y114.121 E786.92949
G1 X98.39 Y114.249 E786.94608
G1 X97.778 Y114.749 E787.00653
G1 X172.628 Y189.599 E795.10418
G1 X171.214 Y189.599 E795.21235
G1 X97 Y115.384 E803.24124
G1 X96.917 Y115.453 E803.24949
G1 X96.253 Y116.052 E803.3179
G1 X169.8 Y189.599 E811.27458
G1 X168.386 Y189.599 E811.38275
G1 X95.568 Y116.781 E819.26056
G1 X95.543 Y116.811 E819.26355
G1 X94.928 Y117.555 E819.33739
G1 X166.971 Y189.599 E827.13141
G1 X165.557 Y189.599 E827.23958
G1 X94.291 Y118.333 E834.94949
G1 X93.743 Y119.075 E835.02005
G1 X93.695 Y119.151 E835.02693
G1 X164.143 Y189.599 E842.64834
G1 X162.729 Y189.599 E842.75651
G1 X93.166 Y120.037 E850.28213
G1 X92.672 Y120.956 E850.36194
G1 X161.315 Y189.599 E857.78808
G1 X159.9 Y189.599 E857.89633
G1 X92.189 Y121.888 E865.22164
G1 X91.924 Y122.451 E865.26924
G1 X91.766 Y122.878 E865.30407
G1 X158.486 Y189.599 E872.52222
G1 X157.072 Y189.599 E872.63039
G1 X91.413 Y123.94 E879.73371
G1 X91.081 Y125.022 E879.82029
G1 X155.658 Y189.599 E886.80655
G1 X154.244 Y189.599 E886.91472
G1 X90.793 Y126.149 E893.7791
G1 X90.656 Y127.011 E893.84587
G1 X90.617 Y127.386 E893.87471
G1 X152.829 Y189.599 E900.60517
G1 X151.415 Y189.599 E900.71334
G1 X90.485 Y128.669 E907.30505
G1 X90.457 Y128.961 E907.32749
G1 X90.407 Y129.966 E907.40446
G1 X90.408 Y130.006 E907.40753
G1 X150.001 Y189.599 E913.85459
G1 X148.587 Y189.599 E913.96276
G1 X90.504 Y131.516 E920.24647
G1 X90.627 Y132.79 E920.34438
G1 X90.672 Y133.098 E920.36819
G1 X147.172 Y189.599 E926.48069
G1 X145.758 Y189.599 E926.58886
G1 X91.056 Y134.897 E932.50679
G1 X91.546 Y136.53 E932.63722
G1 X91.697 Y136.952 E932.67151
G1 X144.344 Y189.599 E938.36712
G1 X142.93 Y189.599 E938.47529
G1 X92.22 Y138.889 E943.96135
G1 X92.255 Y139.449 E944.00427
G1 X92.211 Y140.13 E944.05647
G1 X92.184 Y140.267 E944.06715
G1 X141.516 Y189.599 E949.40413
G1 X140.101 Y189.599 E949.51238
G1 X91.888 Y141.386 E954.7283
G1 X91.868 Y141.449 E954.73336
G1 X91.574 Y142.066 E954.78564
G1 X91.409 Y142.321 E954.80888
G1 X138.687 Y189.599 E959.92364
G1 X137.273 Y189.599 E960.03181
G1 X90.798 Y143.124 E965.05971
G1 X90.776 Y143.154 E965.06255
G1 X90.318 Y143.636 E965.11342
G1 X90.128 Y143.868 E965.13636
G1 X135.859 Y189.599 E970.08376
G1 X134.445 Y189.599 E970.19193
G1 X89.525 Y144.679 E975.0516
G1 X89.31 Y145.001 E975.08122
G1 X88.997 Y145.566 E975.13063
G1 X133.03 Y189.599 E979.89434
G1 X131.616 Y189.599 E980.0025
G1 X88.55 Y146.533 E984.6616
G1 X88.545 Y146.551 E984.66303
G1 X88.274 Y147.364 E984.72858
G1 X88.214 Y147.611 E984.74803
G1 X130.202 Y189.599 E989.2905
G1 X128.788 Y189.599 E989.39867
G1 X87.987 Y148.798 E993.81272
G1 X87.95 Y149.055 E993.83258
G1 X87.903 Y149.951 E993.90122
G1 X87.902 Y150.127 E993.91468
G1 X127.373 Y189.599 E998.18491
G1 X125.959 Y189.599 E998.29308
G1 X87.902 Y151.542 E1002.41027
G1 X87.902 Y152.956 E1002.51844
G1 X124.545 Y189.599 E1006.48266
G1 X123.131 Y189.599 E1006.59083
G1 X87.902 Y154.37 E1010.40208
G1 X87.902 Y155.784 E1010.51024
G1 X121.717 Y189.599 E1014.16852
G1 X120.302 Y189.599 E1014.27676
G1 X87.901 Y157.198 E1017.78206
G1 X87.901 Y158.612 E1017.89023
G1 X118.888 Y189.599 E1021.24256
G1 X117.474 Y189.599 E1021.35073
G1 X87.901 Y160.026 E1024.55008
G1 X87.901 Y161.44 E1024.65825
G1 X116.06 Y189.599 E1027.70463
G1 X114.646 Y189.599 E1027.8128
G1 X87.901 Y162.854 E1030.70621
G1 X87.901 Y164.268 E1030.81437
G1 X113.231 Y189.599 E1033.55475
G1 X111.817 Y189.599 E1033.66292
G1 X87.901 Y165.682 E1036.25033
G1 X87.901 Y167.097 E1036.35857
G1 X110.403 Y189.599 E1038.79295
G1 X108.989 Y189.599 E1038.90112
G1 X87.9 Y168.51 E1041.18263
G1 X87.9 Y169.924 E1041.2908
G1 X107.574 Y189.599 E1043.41928
G1 X106.16 Y189.599 E1043.52745
G1 X87.9 Y171.339 E1045.50291
G1 X87.9 Y172.753 E1045.61108
G1 X104.746 Y189.599 E1047.43356
G1 X103.332 Y189.599 E1047.54173
G1 X87.899 Y174.166 E1049.21135
G1 X87.899 Y175.58 E1049.31952
